storage/app/icons/phosphoricons/duotone/train-simple-duotone.svg

<svg xmlns="http://www.w3.org/2000/svg" fill="currentColor" viewBox="0 0 256 256"><path d="M208 56v72H48V56a24 24 0 0 1 24-24h112a24 24 0 0 1 24 24" opacity=".2"/><path d="M184 24H72a32 32 0 0 0-32 32v128a32 32 0 0 0 32 32h8l-14.4 19.2a8 8 0 1 0 12.8 9.6L100 216h56l21.6 28.8a8 8 0 1 0 12.8-9.6L176 216h8a32 32 0 0 0 32-32V56a32 32 0 0 0-32-32M72 40h112a16 16 0 0 1 16 16v64H56V56a16 16 0 0 1 16-16m112 160H72a16 16 0 0 1-16-16v-48h144v48a16 16 0 0 1-16 16m-88-28a12 12 0 1 1-12-12 12 12 0 0 1 12 12m88 0a12 12 0 1 1-12-12 12 12 0 0 1 12 12"/></svg>

<svg xmlns="http://www.w3.org/2000/svg" viewBox="0 0 256 256" fill="currentColor"><path d="M208,56v72H48V56A24,24,0,0,1,72,32H184A24,24,0,0,1,208,56Z" opacity="0.2"/><path d="M184,24H72A32,32,0,0,0,40,56V184a32,32,0,0,0,32,32h8L65.6,235.2a8,8,0,1,0,12.8,9.6L100,216h56l21.6,28.8a8,8,0,1,0,12.8-9.6L176,216h8a32,32,0,0,0,32-32V56A32,32,0,0,0,184,24ZM72,40H184a16,16,0,0,1,16,16v64H56V56A16,16,0,0,1,72,40ZM184,200H72a16,16,0,0,1-16-16V136H200v48A16,16,0,0,1,184,200ZM96,172a12,12,0,1,1-12-12A12,12,0,0,1,96,172Zm88,0a12,12,0,1,1-12-12A12,12,0,0,1,184,172Z"/></svg>
